assets/images/marca-localiza.svg

<svg width="188" height="45" xmlns="http://www.w3.org/2000/svg" fill="none">
 <g>
  <title>Layer 1</title>
  <path d="m21.151,4.10979l-8.6126,3.53495c-0.2259,0.08791 -0.4194,0.24299 -0.5544,0.44433c-0.135,0.20134 -0.205,0.43924 -0.2006,0.68162l0,9.64691l6.8146,-2.7363c1.0631,-0.4059 1.9751,-1.1296 2.612,-2.0726c0.6368,-0.943 0.9675,-2.0594 0.947,-3.1971l0,-5.61664c0.0098,-0.12322 -0.0131,-0.24687 -0.0665,-0.35837c-0.0533,-0.1115 -0.1353,-0.20689 -0.2374,-0.27649c-0.1022,-0.06959 -0.221,-0.1109 -0.3443,-0.11973c-0.1233,-0.00884 -0.2467,0.01511 -0.3578,0.06942z" fill="#7ddf20" id="svg_1"/>
  <path d="m1.32069,23.4893l0,5.1955c0,7.0808 5.13004,12.2087 12.21961,12.2087l7.6787,0c0.1255,0.0042 0.2505,-0.0174 0.3673,-0.0635c0.1169,-0.046 0.223,-0.1156 0.3118,-0.2044c0.0888,-0.0888 0.1584,-0.1949 0.2045,-0.3118c0.046,-0.1168 0.0676,-0.2418 0.0634,-0.3674l0,-8.5297c0.0042,-0.1256 -0.0174,-0.2507 -0.0634,-0.3677c-0.0461,-0.1169 -0.1157,-0.2231 -0.2044,-0.3121c-0.0888,-0.089 -0.1949,-0.1588 -0.3117,-0.2051c-0.1168,-0.0464 -0.2419,-0.0682 -0.3675,-0.0643l-7.8533,0c-0.2098,0.0077 -0.4189,-0.028 -0.6143,-0.1048c-0.1954,-0.0768 -0.3729,-0.1931 -0.5213,-0.3415c-0.1485,-0.1485 -0.2647,-0.3259 -0.3415,-0.5213c-0.0768,-0.1954 -0.1125,-0.4046 -0.1049,-0.6144l0,-10.4739l-9.70366,3.9496c-0.228,0.0859 -0.42359,0.2407 -0.55966,0.4429c-0.13606,0.2021 -0.20585,0.4416 -0.19969,0.6852z" fill="#05662c" id="svg_2"/>
  <path d="m64.1855,12.6089c-6.5615,0 -11.6152,5.0995 -11.6152,11.5279c0,6.4283 5.0537,11.5256 11.6152,11.5256c6.5614,0 11.6151,-5.0973 11.6151,-11.5256c0,-6.4284 -5.0537,-11.5279 -11.6151,-11.5279zm0,18.5323c-3.9452,0 -6.6946,-3.0549 -6.6946,-7.0044c0,-3.9496 2.7494,-7.0045 6.6946,-7.0045c3.9015,0 6.6487,3.0549 6.6487,7.0045c0,3.9495 -2.7472,7.0044 -6.6487,7.0044z" fill="#05662C" id="svg_3"/>
  <path d="m99.074,29.3672l-3.6353,-1.9508c-0.0426,-0.025 -0.0903,-0.0404 -0.1395,-0.0449c-0.0493,-0.0045 -0.0989,0.0019 -0.1454,0.0188c-0.0464,0.0169 -0.0886,0.0438 -0.1235,0.0789c-0.0349,0.0351 -0.0616,0.0774 -0.0782,0.1239c-0.5562,1.0798 -1.4018,1.9835 -2.4423,2.6101c-1.0405,0.6266 -2.2348,0.9514 -3.4493,0.938c-3.9473,0 -6.7404,-3.0549 -6.7404,-7.0044c0,-3.9496 2.7931,-7.0045 6.7404,-7.0045c1.2146,-0.0151 2.4094,0.3087 3.4501,0.9351c1.0407,0.6264 1.8862,1.5305 2.4415,2.6108c0.0163,0.0468 0.0428,0.0894 0.0777,0.1247c0.0348,0.0353 0.077,0.0623 0.1236,0.0793c0.0466,0.0169 0.0964,0.0232 0.1457,0.0185c0.0494,-0.0047 0.0971,-0.0203 0.1396,-0.0458l3.6353,-1.9508c0.0442,-0.0195 0.0835,-0.0486 0.1151,-0.0852c0.0315,-0.0366 0.0545,-0.0798 0.0672,-0.1264c0.0128,-0.0466 0.015,-0.0955 0.0065,-0.143c-0.0085,-0.0476 -0.0275,-0.0927 -0.0557,-0.132c-1.9507,-3.548 -5.6733,-5.8086 -10.1509,-5.8086c-6.651,0 -11.7046,4.9664 -11.7046,11.5279c0,6.5614 5.0536,11.5256 11.7046,11.5256c4.4776,0 8.246,-2.2606 10.1968,-5.8523c0.0337,-0.0826 0.0339,-0.1751 0.0004,-0.2578c-0.0334,-0.0827 -0.0977,-0.1491 -0.1794,-0.1851z" fill="#05662C" id="svg_4"/>
  <path d="m51.9932,30.7859l-11.3468,0l0,-17.378c-0.0065,-0.0921 -0.0461,-0.1788 -0.1115,-0.2441c-0.0653,-0.0654 -0.152,-0.105 -0.2441,-0.1116l-4.1678,0c-0.0919,0.0067 -0.1783,0.0464 -0.2433,0.1117c-0.065,0.0654 -0.1041,0.1521 -0.1102,0.244l0,17.7337c0,2.5268 1.5515,4.0783 4.0783,4.0783l12.1454,0c0.0921,-0.0062 0.1788,-0.0458 0.2438,-0.1112c0.0651,-0.0655 0.1041,-0.1524 0.1097,-0.2445l0,-3.7226c-0.0056,-0.0921 -0.0446,-0.1791 -0.1097,-0.2445c-0.065,-0.0655 -0.1517,-0.105 -0.2438,-0.1112z" fill="#05662C" id="svg_5"/>
  <path d="m162.385,30.7857l-11.633,0l11.456,-13.6095c0.116,-0.1363 0.179,-0.3099 0.177,-0.4888l0,-3.2731c-0.006,-0.0923 -0.046,-0.1793 -0.111,-0.2447c-0.066,-0.0654 -0.153,-0.1049 -0.245,-0.111l-17.02,0c-0.092,0.0061 -0.179,0.0456 -0.245,0.111c-0.065,0.0654 -0.105,0.1524 -0.111,0.2447l0,3.7248c0.007,0.092 0.046,0.1787 0.112,0.2438c0.065,0.065 0.152,0.104 0.244,0.1097l11.07,0l-11.426,13.6553c-0.115,0.136 -0.177,0.3086 -0.176,0.4866l0,3.2295c0.005,0.0921 0.044,0.179 0.109,0.2445c0.065,0.0654 0.152,0.105 0.244,0.1112l17.557,0c0.092,-0.0062 0.179,-0.0458 0.244,-0.1112c0.065,-0.0655 0.104,-0.1524 0.109,-0.2445l0,-3.7226c-0.005,-0.0925 -0.044,-0.1797 -0.11,-0.2452c-0.066,-0.0655 -0.153,-0.1048 -0.245,-0.1105z" fill="#05662C" id="svg_6"/>
  <path d="m140.838,5.11816l-4.168,0c-0.092,0.00614 -0.178,0.04535 -0.243,0.11036c-0.065,0.06501 -0.104,0.1514 -0.111,0.24314l0,4.25721c0.007,0.09173 0.046,0.17812 0.111,0.24313c0.065,0.065 0.151,0.1042 0.243,0.1104l1.595,0c0.388,0.0124 0.774,-0.0548 1.134,-0.19744c0.361,-0.14266 0.689,-0.35775 0.963,-0.63198c0.274,-0.27424 0.489,-0.6018 0.632,-0.96244c0.142,-0.36063 0.21,-0.7467 0.197,-1.13433l0,-1.68455c-0.006,-0.09174 -0.045,-0.17813 -0.11,-0.24314c-0.065,-0.06501 -0.152,-0.10422 -0.243,-0.11036z" fill="#05662C" id="svg_7"/>
  <path d="m186.323,13.0518l-4.168,0c-0.092,0.0067 -0.178,0.0464 -0.243,0.1117c-0.065,0.0654 -0.104,0.1521 -0.11,0.244l0,2.6338c-1.24,-1.7871 -3.887,-3.4324 -7.094,-3.4324c-6.073,0 -10.692,5.1868 -10.692,11.5279c0,6.341 4.61,11.5256 10.692,11.5256c3.207,0 5.854,-1.6431 7.094,-3.4302l0,2.6316c0.005,0.0921 0.044,0.179 0.109,0.2445c0.065,0.0654 0.152,0.105 0.244,0.1112l4.168,0c0.092,-0.0062 0.179,-0.0456 0.245,-0.111c0.065,-0.0655 0.104,-0.1524 0.111,-0.2447l0,-21.4563c-0.007,-0.0921 -0.047,-0.1788 -0.112,-0.2441c-0.065,-0.0654 -0.152,-0.105 -0.244,-0.1116zm-10.729,18.1767c-3.9,0 -6.605,-3.1029 -6.605,-7.0917c0,-3.9889 2.705,-7.094 6.605,-7.094c3.899,0 6.607,3.1029 6.607,7.094c0,3.991 -2.706,7.0917 -6.607,7.0917z" fill="#05662C" id="svg_8"/>
  <path d="m122.803,13.0518l-4.167,0c-0.092,0.0067 -0.179,0.0464 -0.244,0.1117c-0.065,0.0654 -0.104,0.1521 -0.11,0.244l0,2.6338c-1.241,-1.7871 -3.888,-3.4324 -7.094,-3.4324c-6.075,0 -10.692,5.1868 -10.692,11.5279c0,6.341 4.611,11.5256 10.692,11.5256c3.206,0 5.853,-1.6431 7.094,-3.4302l0,2.6316c0.006,0.0921 0.045,0.179 0.11,0.2445c0.065,0.0654 0.152,0.105 0.244,0.1112l4.167,0c0.092,-0.0062 0.179,-0.0458 0.244,-0.1112c0.065,-0.0655 0.104,-0.1524 0.11,-0.2445l0,-21.4563c-0.006,-0.0919 -0.045,-0.1786 -0.11,-0.244c-0.065,-0.0653 -0.152,-0.105 -0.244,-0.1117zm-10.729,18.1767c-3.901,0 -6.605,-3.1029 -6.605,-7.0917c0,-3.9889 2.704,-7.094 6.605,-7.094c3.902,0 6.605,3.1029 6.605,7.094c0,3.991 -2.712,7.0917 -6.614,7.0917l0.009,0z" fill="#05662C" id="svg_9"/>
  <path d="m140.838,13.0522l-4.166,0c-0.196,0 -0.356,0.1593 -0.356,0.3557l0,21.4541c0,0.1964 0.16,0.3557 0.356,0.3557l4.166,0c0.196,0 0.355,-0.1593 0.355,-0.3557l0,-21.4541c0,-0.1964 -0.159,-0.3557 -0.355,-0.3557z" fill="#05662C" id="svg_10"/>
  <path d="m131.836,5.11816l-4.166,0c-0.196,0 -0.356,0.15924 -0.356,0.35568l0,29.39026c0,0.1964 0.16,0.3557 0.356,0.3557l4.166,0c0.196,0 0.355,-0.1593 0.355,-0.3557l0,-29.39026c0,-0.19644 -0.159,-0.35568 -0.355,-0.35568z" fill="#05662C" id="svg_11"/>
 </g>

</svg>

<svg width="188" height="45" viewBox="0 0 188 45" fill="none" xmlns="http://www.w3.org/2000/svg">
<path d="M21.151 4.10979L12.5384 7.64474C12.3125 7.73265 12.119 7.88773 11.984 8.08907C11.849 8.29041 11.779 8.52831 11.7834 8.77069V18.4176L18.598 15.6813C19.6611 15.2754 20.5731 14.5517 21.21 13.6087C21.8468 12.6657 22.1775 11.5493 22.157 10.4116V4.79496C22.1668 4.67174 22.1439 4.54809 22.0905 4.43659C22.0372 4.32509 21.9552 4.2297 21.8531 4.1601C21.7509 4.09051 21.6321 4.0492 21.5088 4.04037C21.3855 4.03153 21.2621 4.05548 21.151 4.10979Z" fill="#05662C"/>
<path d="M1.32069 23.4893V28.6848C1.32069 35.7656 6.45073 40.8935 13.5403 40.8935H21.219C21.3445 40.8977 21.4695 40.8761 21.5863 40.83C21.7032 40.784 21.8093 40.7144 21.8981 40.6256C21.9869 40.5368 22.0565 40.4307 22.1026 40.3138C22.1486 40.197 22.1702 40.072 22.166 39.9464V31.4167C22.1702 31.2911 22.1486 31.166 22.1026 31.049C22.0565 30.9321 21.9869 30.8259 21.8982 30.7369C21.8094 30.6479 21.7033 30.5781 21.5865 30.5318C21.4697 30.4854 21.3446 30.4636 21.219 30.4675H13.3657C13.1559 30.4752 12.9468 30.4395 12.7514 30.3627C12.556 30.2859 12.3785 30.1696 12.2301 30.0212C12.0816 29.8727 11.9654 29.6953 11.8886 29.4999C11.8118 29.3045 11.7761 29.0953 11.7837 28.8855V18.4116L2.08004 22.3612C1.85204 22.4471 1.65645 22.6019 1.52038 22.8041C1.38432 23.0062 1.31453 23.2457 1.32069 23.4893Z" fill="#7DDF20"/>
<path d="M64.1855 12.6089C57.624 12.6089 52.5703 17.7084 52.5703 24.1368C52.5703 30.5651 57.624 35.6624 64.1855 35.6624C70.7469 35.6624 75.8006 30.5651 75.8006 24.1368C75.8006 17.7084 70.7469 12.6089 64.1855 12.6089ZM64.1855 31.1412C60.2403 31.1412 57.4909 28.0863 57.4909 24.1368C57.4909 20.1872 60.2403 17.1323 64.1855 17.1323C68.087 17.1323 70.8342 20.1872 70.8342 24.1368C70.8342 28.0863 68.087 31.1412 64.1855 31.1412Z" fill="#05662C"/>
<path d="M99.074 29.3672L95.4387 27.4164C95.3961 27.3914 95.3484 27.376 95.2992 27.3715C95.2499 27.367 95.2003 27.3734 95.1538 27.3903C95.1074 27.4072 95.0652 27.4341 95.0303 27.4692C94.9954 27.5043 94.9687 27.5466 94.9521 27.5931C94.3959 28.6729 93.5503 29.5766 92.5098 30.2032C91.4693 30.8298 90.275 31.1546 89.0605 31.1412C85.1132 31.1412 82.3201 28.0863 82.3201 24.1368C82.3201 20.1872 85.1132 17.1323 89.0605 17.1323C90.2751 17.1172 91.4699 17.441 92.5106 18.0674C93.5513 18.6938 94.3968 19.5979 94.9521 20.6782C94.9684 20.725 94.9949 20.7676 95.0298 20.8029C95.0646 20.8382 95.1068 20.8652 95.1534 20.8822C95.2 20.8991 95.2498 20.9054 95.2991 20.9007C95.3485 20.896 95.3962 20.8804 95.4387 20.8549L99.074 18.9041C99.1182 18.8846 99.1575 18.8555 99.1891 18.8189C99.2206 18.7823 99.2436 18.7391 99.2563 18.6925C99.2691 18.6459 99.2713 18.597 99.2628 18.5495C99.2543 18.5019 99.2353 18.4568 99.2071 18.4175C97.2564 14.8695 93.5338 12.6089 89.0562 12.6089C82.4052 12.6089 77.3516 17.5753 77.3516 24.1368C77.3516 30.6982 82.4052 35.6624 89.0562 35.6624C93.5338 35.6624 97.3022 33.4018 99.253 29.8101C99.2867 29.7275 99.2869 29.635 99.2534 29.5523C99.22 29.4696 99.1557 29.4032 99.074 29.3672Z" fill="#05662C"/>
<path d="M51.9932 30.7859H40.6464V13.4079C40.6399 13.3158 40.6003 13.2291 40.5349 13.1638C40.4696 13.0984 40.3829 13.0588 40.2908 13.0522H36.123C36.0311 13.0589 35.9447 13.0986 35.8797 13.1639C35.8147 13.2293 35.7756 13.316 35.7695 13.4079V31.1416C35.7695 33.6684 37.321 35.2199 39.8478 35.2199H51.9932C52.0853 35.2137 52.172 35.1741 52.237 35.1087C52.3021 35.0432 52.3411 34.9563 52.3467 34.8642V31.1416C52.3411 31.0495 52.3021 30.9625 52.237 30.8971C52.172 30.8316 52.0853 30.7921 51.9932 30.7859Z" fill="#05662C"/>
<path d="M162.385 30.7857H150.752L162.208 17.1762C162.324 17.0399 162.387 16.8663 162.385 16.6874V13.4143C162.379 13.322 162.339 13.235 162.274 13.1696C162.208 13.1042 162.121 13.0647 162.029 13.0586H145.009C144.917 13.0647 144.83 13.1042 144.764 13.1696C144.699 13.235 144.659 13.322 144.653 13.4143V17.1391C144.66 17.2311 144.699 17.3178 144.765 17.3829C144.83 17.4479 144.917 17.4869 145.009 17.4926H156.079L144.653 31.1479C144.538 31.2839 144.476 31.4565 144.477 31.6345V34.864C144.482 34.9561 144.521 35.043 144.586 35.1085C144.651 35.1739 144.738 35.2135 144.83 35.2197H162.387C162.479 35.2135 162.566 35.1739 162.631 35.1085C162.696 35.043 162.735 34.9561 162.74 34.864V31.1414C162.735 31.0489 162.696 30.9617 162.63 30.8962C162.564 30.8307 162.477 30.7914 162.385 30.7857Z" fill="#05662C"/>
<path d="M140.838 5.11816H136.67C136.578 5.1243 136.492 5.16351 136.427 5.22852C136.362 5.29353 136.323 5.37992 136.316 5.47166V9.72887C136.323 9.8206 136.362 9.90699 136.427 9.972C136.492 10.037 136.578 10.0762 136.67 10.0824H138.265C138.653 10.0948 139.039 10.0276 139.399 9.88496C139.76 9.7423 140.088 9.52721 140.362 9.25298C140.636 8.97874 140.851 8.65118 140.994 8.29054C141.136 7.92991 141.204 7.54384 141.191 7.15621V5.47166C141.185 5.37992 141.146 5.29353 141.081 5.22852C141.016 5.16351 140.929 5.1243 140.838 5.11816Z" fill="#05662C"/>
<path d="M186.323 13.0518H182.155C182.063 13.0585 181.977 13.0982 181.912 13.1635C181.847 13.2289 181.808 13.3156 181.802 13.4075V16.0413C180.562 14.2542 177.915 12.6089 174.708 12.6089C168.635 12.6089 164.016 17.7957 164.016 24.1368C164.016 30.4778 168.626 35.6624 174.708 35.6624C177.915 35.6624 180.562 34.0193 181.802 32.2322V34.8638C181.807 34.9559 181.846 35.0428 181.911 35.1083C181.976 35.1737 182.063 35.2133 182.155 35.2195H186.323C186.415 35.2133 186.502 35.1739 186.568 35.1085C186.633 35.043 186.672 34.9561 186.679 34.8638V13.4075C186.672 13.3154 186.632 13.2287 186.567 13.1634C186.502 13.098 186.415 13.0584 186.323 13.0518ZM175.594 31.2285C171.694 31.2285 168.989 28.1256 168.989 24.1368C168.989 20.1479 171.694 17.0428 175.594 17.0428C179.493 17.0428 182.201 20.1457 182.201 24.1368C182.201 28.1278 179.495 31.2285 175.594 31.2285Z" fill="#05662C"/>
<path d="M122.803 13.0518H118.636C118.544 13.0585 118.457 13.0982 118.392 13.1635C118.327 13.2289 118.288 13.3156 118.282 13.4075V16.0413C117.041 14.2542 114.394 12.6089 111.188 12.6089C105.113 12.6089 100.496 17.7957 100.496 24.1368C100.496 30.4778 105.107 35.6624 111.188 35.6624C114.394 35.6624 117.041 34.0193 118.282 32.2322V34.8638C118.288 34.9559 118.327 35.0428 118.392 35.1083C118.457 35.1737 118.544 35.2133 118.636 35.2195H122.803C122.895 35.2133 122.982 35.1737 123.047 35.1083C123.112 35.0428 123.151 34.9559 123.157 34.8638V13.4075C123.151 13.3156 123.112 13.2289 123.047 13.1635C122.982 13.0982 122.895 13.0585 122.803 13.0518ZM112.074 31.2285C108.173 31.2285 105.469 28.1256 105.469 24.1368C105.469 20.1479 108.173 17.0428 112.074 17.0428C115.976 17.0428 118.679 20.1457 118.679 24.1368C118.679 28.1278 115.967 31.2285 112.065 31.2285H112.074Z" fill="#05662C"/>
<path d="M140.838 13.0522H136.672C136.476 13.0522 136.316 13.2115 136.316 13.4079V34.862C136.316 35.0584 136.476 35.2177 136.672 35.2177H140.838C141.034 35.2177 141.193 35.0584 141.193 34.862V13.4079C141.193 13.2115 141.034 13.0522 140.838 13.0522Z" fill="#05662C"/>
<path d="M131.836 5.11816H127.67C127.474 5.11816 127.314 5.2774 127.314 5.47384V34.8641C127.314 35.0605 127.474 35.2198 127.67 35.2198H131.836C132.032 35.2198 132.191 35.0605 132.191 34.8641V5.47384C132.191 5.2774 132.032 5.11816 131.836 5.11816Z" fill="#05662C"/>
</svg>
